src/assets/img/angularIcon.svg

<svg width="57" height="60" viewBox="0 0 57 60" fill="none" xmlns="http://www.w3.org/2000/svg">
<path d="M28.2574 0L56.1574 9.96L51.9034 46.89L28.2574 60L4.61142 46.89L0.357422 9.96L28.2574 0ZM28.2574 6.63L10.8154 45.78H17.3194L20.8264 37.02H35.6284L39.1384 45.78H45.6394L28.2574 6.63ZM33.3514 31.62H23.1634L28.2574 19.35L33.3514 31.62Z" fill="white"/>
</svg>

<svg width="57" height="60" fill="none" xmlns="http://www.w3.org/2000/svg"><path d="m28.257 0 27.9 9.96-4.254 36.93L28.257 60 4.611 46.89.357 9.96 28.257 0Zm0 6.63L10.815 45.78h6.504l3.507-8.76h14.802l3.51 8.76h6.501L28.257 6.63Zm5.094 24.99H23.163l5.094-12.27 5.094 12.27Z" fill="#fff"/></svg>
